public/assets/img/vector1.svg

<svg width="63" height="65" viewBox="0 0 63 65" fill="none" xmlns="http://www.w3.org/2000/svg">
<path d="M57.569 9.75H28.2414V11.9167H57.569V9.75Z" fill="#90A1AE"/>
<path d="M46.7069 14.0833H28.2414V16.25H46.7069V14.0833Z" fill="#90A1AE"/>
<path d="M46.7069 18.4167H28.2414V20.5833H46.7069V18.4167Z" fill="#90A1AE"/>
<path d="M57.569 5.41667H36.931V7.58333H57.569V5.41667Z" fill="#90A1AE"/>
<path d="M34.7586 5.41667H32.5862V7.58333H34.7586V5.41667Z" fill="#90A1AE"/>
<path d="M32.5862 43.3333H30.4138V45.5H32.5862V43.3333Z" fill="#90A1AE"/>
<path d="M17.0611 7.26592L15.5252 5.73408L13.3527 7.90075C12.9287 8.32379 12.9287 9.00954 13.3527 9.43258L15.5252 11.5992L17.0611 10.0674L15.6566 8.66667L17.0611 7.26592Z" fill="#90A1AE"/>
<path d="M25.7507 7.90075L23.5783 5.73408L22.0424 7.26592L23.4469 8.66667L22.0424 10.0674L23.5783 11.5992L25.7507 9.43258C26.1747 9.00954 26.1747 8.32379 25.7507 7.90075Z" fill="#90A1AE"/>
<path d="M19.6082 5.07283L17.4338 11.5727L19.4935 12.2581L21.6679 5.75823L19.6082 5.07283Z" fill="#90A1AE"/>
<path d="M55.3966 33.5833V24.9167H53.2241V33.5833H51.0517V22.75H48.8793V33.5833H46.7069V28.1667H44.5345V33.5833H42.3621V27.0833H40.1897V33.5833H38.0172V29.25H35.8448V33.5833H33.6724V35.75H57.569V33.5833H55.3966Z" fill="#90A1AE"/>
<path d="M56.4828 0H6.51724C2.91932 0.00352083 0.00353017 2.91159 0 6.5V43.3333C0.00353017 46.9217 2.91932 49.8298 6.51724 49.8333H19.9667L15.6218 58.5H9.77586C7.97615 58.5 6.51724 59.9551 6.51724 61.75C6.51724 63.5449 7.97615 65 9.77586 65H53.2241C55.0238 65 56.4828 63.5449 56.4828 61.75C56.4828 59.9551 55.0238 58.5 53.2241 58.5H47.3782L43.0333 49.8333H56.4828C60.0807 49.8298 62.9965 46.9217 63 43.3333V6.5C62.9965 2.91159 60.0807 0.00352083 56.4828 0ZM2.17241 15.2425L4.64136 18.174C4.84774 18.4192 5.15242 18.5608 5.4734 18.5608H8.79828C9.11925 18.5608 9.42393 18.4192 9.63031 18.174L12.1003 15.2425L14.5378 16.0322L14.8072 19.8488C14.8294 20.168 14.9921 20.4611 15.2514 20.6494L17.942 22.5994C18.2022 22.7868 18.5319 22.8506 18.8435 22.7738L22.5725 21.8498L24.0801 23.9178L22.0478 27.1678C21.8795 27.4403 21.8405 27.773 21.9414 28.0768L22.97 31.2303C23.069 31.5345 23.2975 31.7796 23.5946 31.8998L27.1552 33.3396V35.8962L23.5924 37.336C23.2947 37.4557 23.0657 37.7015 22.9678 38.0066L22.642 39H16.3843C18.8185 33.917 16.6602 27.8283 11.5638 25.4005C8.57031 23.9746 5.06919 24.0853 2.17241 25.6978V15.2425ZM2.17241 28.275C5.68575 25.5413 10.7559 26.1659 13.4967 29.6701C15.6129 32.3754 15.7762 36.1216 13.9034 39H2.17241V28.275ZM53.2241 60.6667C53.824 60.6667 54.3103 61.1517 54.3103 61.75C54.3103 62.3483 53.824 62.8333 53.2241 62.8333H9.77586C9.176 62.8333 8.68966 62.3483 8.68966 61.75C8.68966 61.1517 9.176 60.6667 9.77586 60.6667H53.2241ZM44.9494 58.5H18.0506L22.3954 49.8333H40.6046L44.9494 58.5ZM60.8276 43.3333C60.8276 45.7266 58.8823 47.6667 56.4828 47.6667H6.51724C4.11767 47.6667 2.17241 45.7266 2.17241 43.3333V41.1667H60.8276V43.3333ZM60.8276 39H25.2597L28.6498 37.6296C29.0593 37.4638 29.3273 37.0672 29.3276 36.6264V32.6083C29.3277 32.1671 29.0597 31.77 28.6498 31.6041L24.8741 30.0809L24.1594 27.8872L26.3123 24.4422C26.5458 24.0679 26.5286 23.5899 26.2688 23.2332L23.9009 19.9832C23.6409 19.6261 23.1898 19.4619 22.7604 19.5683L18.8109 20.5432L16.9448 19.1913L16.6592 15.1504C16.6281 14.7099 16.3319 14.3322 15.9108 14.196L12.0819 12.9545C11.6606 12.8207 11.2 12.9527 10.9142 13.2893L8.29971 16.393H5.98283L3.36724 13.2893C3.0813 12.9523 2.62007 12.8202 2.19848 12.9545L2.17241 12.9643V6.5C2.17241 4.10678 4.11767 2.16667 6.51724 2.16667H56.4828C58.8823 2.16667 60.8276 4.10678 60.8276 6.5V39Z" fill="#90A1AE"/>
</svg>

<svg width="63" height="65" fill="none" xmlns="http://www.w3.org/2000/svg"><path d="M57.569 9.75H28.241v2.167H57.57V9.75ZM46.707 14.083H28.24v2.167h18.466v-2.167ZM46.707 18.417H28.24v2.166h18.466v-2.166ZM57.569 5.417H36.931v2.166h20.638V5.417ZM34.759 5.417h-2.173v2.166h2.173V5.417ZM32.586 43.333h-2.172V45.5h2.172v-2.167ZM17.061 7.266l-1.536-1.532-2.172 2.167a1.081 1.081 0 0 0 0 1.532l2.172 2.166 1.536-1.532-1.404-1.4 1.404-1.401ZM25.75 7.9l-2.172-2.166-1.536 1.532 1.405 1.4-1.405 1.401 1.536 1.532 2.173-2.166a1.081 1.081 0 0 0 0-1.532ZM19.608 5.073l-2.174 6.5 2.06.685 2.174-6.5-2.06-.685ZM55.397 33.583v-8.666h-2.173v8.666h-2.172V22.75h-2.173v10.833h-2.172v-5.416h-2.172v5.416h-2.173v-6.5H40.19v6.5h-2.173V29.25h-2.172v4.333h-2.173v2.167H57.57v-2.167h-2.172Z" fill="#90A1AE"/><path d="M56.483 0H6.517C2.92.004.004 2.912 0 6.5v36.833c.004 3.589 2.92 6.497 6.517 6.5h13.45L15.622 58.5H9.776a3.254 3.254 0 0 0-3.259 3.25A3.254 3.254 0 0 0 9.776 65h43.448c1.8 0 3.259-1.455 3.259-3.25a3.254 3.254 0 0 0-3.259-3.25h-5.846l-4.345-8.667h13.45c3.598-.003 6.514-2.911 6.517-6.5V6.5C62.996 2.912 60.08.004 56.483 0ZM2.173 15.242l2.468 2.932c.207.245.511.387.832.387h3.325c.321 0 .626-.142.832-.387l2.47-2.931 2.438.79.27 3.816c.021.319.184.612.443.8l2.691 1.95c.26.188.59.252.901.175l3.73-.924 1.507 2.068-2.032 3.25a1.081 1.081 0 0 0-.107.909l1.029 3.153c.099.305.328.55.625.67l3.56 1.44v2.556l-3.563 1.44c-.297.12-.526.366-.624.67l-.326.994h-6.258c2.434-5.083.276-11.172-4.82-13.6a10.25 10.25 0 0 0-9.392.298V15.242Zm0 13.033c3.513-2.734 8.583-2.11 11.324 1.395a8.03 8.03 0 0 1 .406 9.33H2.173V28.275Zm51.051 32.392c.6 0 1.086.485 1.086 1.083s-.486 1.083-1.086 1.083H9.776c-.6 0-1.086-.485-1.086-1.083s.486-1.083 1.086-1.083h43.448ZM44.95 58.5H18.051l4.344-8.667h18.21l4.344 8.667Zm15.879-15.167a4.34 4.34 0 0 1-4.345 4.334H6.517a4.34 4.34 0 0 1-4.345-4.334v-2.166h58.656v2.166Zm0-4.333H25.26l3.39-1.37c.41-.166.677-.563.678-1.004v-4.018c0-.44-.268-.838-.678-1.004l-3.776-1.523-.715-2.194 2.153-3.445a1.08 1.08 0 0 0-.043-1.209l-2.368-3.25a1.087 1.087 0 0 0-1.14-.415l-3.95.975-1.866-1.352-.286-4.04a1.084 1.084 0 0 0-.748-.955l-3.83-1.242a1.097 1.097 0 0 0-1.167.335L8.3 16.393H5.983l-2.616-3.104a1.097 1.097 0 0 0-1.169-.335l-.026.01V6.5a4.34 4.34 0 0 1 4.345-4.333h49.966A4.34 4.34 0 0 1 60.828 6.5V39Z" fill="#90A1AE"/></svg>
